X: 0
T: Kitty's Wedding
C: Trad
O: Ireland
M: 4/4
L: 1/8
K: Dmaj
|:fe|"D"d2Bd A2FA|BAFA D2ED|"G"B,D (3A,B,C DAdB|"A"AFDF Egfe|
"D"d2Bd A2FA|"Bm"BAFA D2ED|"G"B,D (3A,B,C DAdB|"A"AFEF "D"D2:|
|:fg|"D"afed bafe|d2ef edBd|"G"DFAF ABde|"A"fedf e2fg|
"Bm"afed bafe|"D"d2ef edBd|"G"DFAF ABdf|"A"eABc d2:|